X: 1
T:New Wedding -- Reel
M:2/4
L:1/16
R:reel
B:Ryan's Mammoth Collection
N:192
Z:Contributed by Ray Davies,  ray:davies99.freeserve.co.uk
K:G
uc2"^Segno"|\
BGAF BGAF | .G2(Bd) gedc | BGAF BGAF | FDEF G2c2 |
BGAF BGAF | .G2(Bd) gedc | BGAF BGAF | FDEF G2G2 H:|
|:gfge fgaf | .g2(bg) afdf | gfge fgaf | bgef g2g2 |
  gfge fgaf | .g2(bg) afdf | gfge fgaf | bgeg gedc "_D.C.""^Segno":|
